; HEADER_BLOCK_START
; generated by OrcaSlicer 2.3.2 on 2026-04-28 at 16:24:49
; total layer number: 11
; filament_density: 1.23
; filament_diameter: 1.75
; max_z_height: 3.00
; filament: 1
; HEADER_BLOCK_END

; THUMBNAIL_BLOCK_START

;
; THUMBNAIL_BLOCK_END

; THUMBNAIL_BLOCK_START

;
; THUMBNAIL_BLOCK_END

; THUMBNAIL_BLOCK_START

;
; THUMBNAIL_BLOCK_END

; THUMBNAIL_BLOCK_START

;
; THUMBNAIL_BLOCK_END

; THUMBNAIL_BLOCK_START

;
; THUMBNAIL_BLOCK_END

; external perimeters extrusion width = 0.55mm
; perimeters extrusion width = 0.55mm
; infill extrusion width = 0.55mm
; solid infill extrusion width = 0.55mm
; top infill extrusion width = 0.45mm
; first layer extrusion width = 0.55mm

; EXECUTABLE_BLOCK_START
M486 S0
M486 APart_Studio_1.stl_id_0_copy_0
M486 S-1
M73 P0 R48
M201 X4000 Y4000 Z200 E2500
M203 X300 Y300 Z40 E100
M204 P4000 R1200 T4000 ; sets acceleration (P, T) and retract acceleration (R), mm/sec^2
M205 X8.00 Y8.00 Z2.00 E10.00 ; sets the jerk limits, mm/sec
M205 J0.010
;TYPE:Custom
M17 ; enable steppers
M862.1 P0.4 ; nozzle check
M862.3 P "MK4S" ; printer model check
M862.5 P2 ; g-code level check
M862.6 P"Input shaper" ; FW feature check
M115 U6.1.3+7898

M555 X28.4699 Y37.5321 W142.613 H120.902

G90 ; use absolute coordinates
M83 ; extruder relative mode

M140 S55 ; set bed temp
M104 T0 S170 ; set extruder temp for bed leveling
M109 T0 R170 ; wait for temp

M84 E ; turn off E motor

G28 ; home all without mesh bed level

G1 X42 Y-4 Z5 F4800

M302 S160 ; lower cold extrusion limit to 160C


G1 E-2 F2400 ; retraction
M73 P9 R43


M84 E ; turn off E motor

G29 P9 X10 Y-4 W32 H4

M106 S100

G0 Z40 F10000

M190 S55 ; wait for bed temp

M107

;
; MBL
;
M84 E ; turn off E motor
G29 P1 ; invalidate mbl & probe print area
G29 P1 X0 Y0 W50 H20 C ; probe near purge place
G29 P3.2 ; interpolate mbl probes
G29 P3.13 ; extrapolate mbl outside probe area
G29 A ; activate mbl

; prepare for purge
M104 S220
G0 X0 Y-4 Z15 F4800 ; move away and ready for the purge
M109 S220

G92 E0
M569 S0 E ; set spreadcycle mode for extruder

;
; Extrude purge line
;
G92 E0 ; reset extruder position
G1 E2 F2400 ; deretraction after the initial one before nozzle cleaning
G0 E7 X15 Z0.2 F500 ; purge
G0 X25 E4 F500 ; purge
G0 X35 E4 F650 ; purge
G0 X45 E4 F800 ; purge
G0 X48 Z0.05 F8000 ; wipe, move close to the bed
G0 X51 Z0.2 F8000 ; wipe, move quickly away from the bed

G92 E0
M221 S100 ; set flow to 100%
G90
G21
M83 ; use relative distances for extrusion
; Filament gcode
M106 S0
;LAYER_CHANGE
;Z:0.2
;HEIGHT:0.2
;BEFORE_LAYER_CHANGE
G92 E0.0
;0.2
M201 X4000 Y4000

;AFTER_LAYER_CHANGE
;0.2
M74 W0

;_SET_FAN_SPEED_CHANGING_LAYER
M204 P500
; printing object Part Studio 1.stl id:0 copy 0
M204 T500
G1 E-.7 F2100
M486 S0
G1 X32.146 Y140.263 F18000
G1 Z.4 F720
G1 Z.2
G1 E.7 F1500
;TYPE:Brim
;WIDTH:0.55
G1 F2400
G1 X32.146 Y141 E.03108
G1 X32.204 Y141.514 E.02179
G1 X32.286 Y141.797 E.01244
G1 X32.391 Y142.043 E.01127
G1 X32.654 Y142.458 E.02075
G1 X32.885 Y142.711 E.01443
G1 X33.121 Y142.906 E.01289
G1 X33.554 Y143.153 E.02102
G1 X34.028 Y143.305 E.02098
G1 X34.412 Y143.352 E.01634
G1 X34.803 Y143.353 E.01647
G1 X34.446 Y143.829 E.0251
G1 X33.995 Y144.176 E.02399
G1 X33.469 Y144.393 E.02399
G1 X32.905 Y144.468 E.02399
G1 X32.341 Y144.393 E.02399
G1 X31.815 Y144.176 E.02399
G1 X31.364 Y143.829 E.02399
G1 X31.017 Y143.378 E.02399
G1 X30.8 Y142.852 E.02399
G1 X30.725 Y142.288 E.02399
G1 X30.8 Y141.724 E.02399
G1 X31.017 Y141.198 E.02399
G1 X31.364 Y140.747 E.02399
G1 X31.815 Y140.4 E.02399
G1 X32.11 Y140.278 E.01343
G1 X31.622 Y141.485 F18000
G1 F2400
G1 X31.705 Y141.592 E.00569
G1 X31.797 Y141.931 E.01481
G1 X31.92 Y142.231 E.01367
G1 X32.288 Y142.81 E.02894
G1 X32.504 Y143.046 E.01347
G1 X32.79 Y143.29 E.01586
G1 X33.363 Y143.621 E.0279
G1 X33.435 Y143.718 E.00509
G1 X33.414 Y143.836 E.00509
G1 X33.307 Y143.903 E.00531
G1 X32.925 Y143.953 E.01625
G1 X32.455 Y143.892 E.01999
G1 X32.055 Y143.72 E.01833
G1 X31.741 Y143.48 E.01667
G1 X31.472 Y143.138 E.01833
G1 X31.301 Y142.738 E.01833
G1 X31.239 Y142.268 E.01999
G1 X31.291 Y141.876 E.01667
G1 X31.415 Y141.563 E.01418
G1 X31.502 Y141.479 E.00509
G1 X31.582 Y141.483 E.00341
G1 E-.7 F2100
G1 X42.961 Y142.828 Z.4 F18000
G1 X69.964 Y146.019 Z.4
G1 Z.2 F720
G1 E.7 F1500
G1 F2400
G1 X70.039 Y145.455 E.02399
G1 X70.256 Y144.929 E.02399
G1 X70.312 Y144.857 E.00383
G1 X70.317 Y144.877 E.00086
G1 X70.472 Y145.193 E.01485
G1 X70.645 Y145.447 E.01298
G1 X70.826 Y145.654 E.01158
G1 X71.056 Y145.858 E.01298
G1 X71.311 Y146.031 E.01298
G1 X71.618 Y146.181 E.0144
G1 X72.01 Y146.301 E.01729
G1 X72.406 Y146.351 E.01683
G1 X74.28 Y146.353 E.079
G1 X74.249 Y146.583 E.00977
G1 X74.032 Y147.109 E.02399
G1 X73.685 Y147.56 E.02399
G1 X73.234 Y147.907 E.02399
G1 X72.708 Y148.124 E.02399
G1 X72.144 Y148.199 E.02399
G1 X71.58 Y148.124 E.02399
G1 X71.054 Y147.907 E.02399
G1 X70.603 Y147.56 E.02399
G1 X70.256 Y147.109 E.02399
G1 X70.039 Y146.583 E.02399
G1 X69.97 Y146.059 E.0223
G1 X70.549 Y146.339 F18000
G1 F2400
G1 X70.64 Y146.259 E.00509
G1 X70.77 Y146.277 E.00552
G1 X71.096 Y146.49 E.01644
G1 X71.385 Y146.632 E.01354
G1 X71.851 Y146.782 E.02066
G1 X72.416 Y146.859 E.02402
G1 X73.275 Y146.859 E.03626
G1 X73.386 Y146.907 E.00509
G1 X73.427 Y147.021 E.00509
G1 X73.396 Y147.104 E.00374
G1 X73.308 Y147.211 E.00584
G1 X72.994 Y147.451 E.01667
G1 X72.594 Y147.623 E.01833
G1 X72.164 Y147.684 E.01833
G1 X71.694 Y147.623 E.01999
G1 X71.294 Y147.451 E.01833
G1 X70.98 Y147.211 E.01667
G1 X70.711 Y146.869 E.01833
G1 X70.545 Y146.459 E.01864
G1 X70.548 Y146.379 E.00341
G1 E-.7 F2100
G1 X81.908 Y147.874 Z.4 F18000
G1 X88.992 Y148.807 Z.4
G1 Z.2 F720
G1 E.7 F1500
G1 F2400
G1 X89.039 Y148.455 E.01497
G1 X89.256 Y147.929 E.02399
G1 X89.312 Y147.856 E.00388
G1 X89.359 Y147.977 E.00548
G1 X89.619 Y148.412 E.02133
G1 X89.85 Y148.677 E.01484
G1 X90.056 Y148.858 E.01158
G1 X90.307 Y149.028 E.01279
G1 X90.618 Y149.181 E.01459
G1 X91.01 Y149.301 E.01729
G1 X91.406 Y149.351 E.01683
G1 X93.28 Y149.353 E.079
G1 X93.249 Y149.583 E.00977
G1 X93.032 Y150.109 E.02399
G1 X92.685 Y150.56 E.02399
G1 X92.234 Y150.907 E.02399
G1 X91.708 Y151.124 E.02399
G1 X91.144 Y151.199 E.02399
G1 X90.58 Y151.124 E.02399
G1 X90.054 Y150.907 E.02399
G1 X89.603 Y150.56 E.02399
G1 X89.256 Y150.109 E.02399
G1 X89.039 Y149.583 E.02399
G1 X88.964 Y149.019 E.02399
G1 X88.987 Y148.847 E.00733
G1 X89.549 Y149.338 F18000
G1 F2400
G1 X89.64 Y149.259 E.00509
G1 X89.77 Y149.276 E.00553
G1 X90.092 Y149.488 E.01625
G1 X90.384 Y149.631 E.01374
G1 X90.851 Y149.782 E.02068
G1 X91.416 Y149.859 E.02402
G1 X92.276 Y149.859 E.03626
G1 X92.386 Y149.907 E.00509
G1 X92.427 Y150.021 E.00509
G1 X92.396 Y150.104 E.00374
G1 X92.308 Y150.211 E.00584
G1 X91.994 Y150.451 E.01667
G1 X91.594 Y150.623 E.01833
G1 X91.164 Y150.684 E.01833
G1 X90.694 Y150.623 E.01999
G1 X90.294 Y150.451 E.01833
G1 X89.98 Y150.211 E.01667
G1 X89.712 Y149.869 E.01833
G1 X89.545 Y149.459 E.01865
G1 X89.547 Y149.378 E.00341
G1 E-.7 F2100
G1 X100.828 Y151.388 Z.4 F18000
G1 X106.997 Y152.488 Z.4
G1 Z.2 F720
G1 E.7 F1500
G1 F2400
G1 X107.215 Y151.962 E.02399
G1 X107.561 Y151.51 E.02399
G1 X108.012 Y151.164 E.02399
G1 X108.147 Y151.108 E.00612
G1 X108.148 Y152.09 E.04138
G1 X108.186 Y152.427 E.01432
G1 X108.252 Y152.694 E.01158
G1 X108.362 Y152.982 E.01298
G1 X108.526 Y153.28 E.01437
G1 X108.71 Y153.527 E.01298
G1 X108.902 Y153.727 E.0117
G1 X109.248 Y153.992 E.01835
G1 X109.519 Y154.139 E.01299
G1 X109.779 Y154.24 E.01177
G1 X110.27 Y154.341 E.02115
G1 X110.83 Y154.35 E.02362
G1 X110.644 Y154.593 E.01292
G1 X110.192 Y154.939 E.02399
G1 X109.666 Y155.157 E.02399
G1 X109.102 Y155.231 E.02399
G1 X108.538 Y155.157 E.02399
G1 X108.012 Y154.939 E.02399
G1 X107.561 Y154.593 E.02399
G1 X107.215 Y154.141 E.02399
G1 X106.997 Y153.616 E.02399
G1 X106.923 Y153.052 E.02399
G1 X106.992 Y152.527 E.0223
G1 X107.475 Y152.816 F18000
G1 F2400
G1 X107.524 Y152.733 E.00408
G1 X107.642 Y152.707 E.00509
G1 X107.758 Y152.811 E.00657
G1 X107.922 Y153.234 E.01911
G1 X108.077 Y153.517 E.01359
G1 X108.298 Y153.823 E.01595
G1 X108.602 Y154.136 E.01839
G1 X108.972 Y154.416 E.01956
G1 X109.032 Y154.521 E.00509
G1 X108.996 Y154.636 E.00509
G1 X108.861 Y154.688 E.00611
G1 X108.69 Y154.666 E.00724
G1 X108.287 Y154.504 E.01833
G1 X107.939 Y154.243 E.01833
G1 X107.67 Y153.902 E.01833
G1 X107.499 Y153.502 E.01833
G1 X107.437 Y153.032 E.01999
G1 X107.46 Y152.853 E.00762
G1 E-.7 F2100
G1 X118.88 Y153.786 Z.4 F18000
G1 X125.81 Y154.353 Z.4
G1 Z.2 F720
G1 E.7 F1500
G1 F2400
G1 X127.627 Y154.349 E.0766
G1 X128.033 Y154.291 E.01729
G1 X128.382 Y154.181 E.01544
G1 X128.66 Y154.047 E.01302
G1 X128.917 Y153.878 E.01297
G1 X129.285 Y153.531 E.02133
G1 X129.545 Y153.164 E.01895
G1 X129.72 Y152.767 E.01832
G1 X129.831 Y152.912 E.0077
G1 X130.049 Y153.437 E.02399
G1 X130.123 Y154.001 E.02399
G1 X130.049 Y154.566 E.02399
G1 X129.831 Y155.091 E.02399
G1 X129.485 Y155.543 E.02399
G1 X129.034 Y155.889 E.02399
G1 X128.508 Y156.107 E.02399
G1 X127.944 Y156.181 E.02399
G1 X127.38 Y156.107 E.02399
G1 X126.854 Y155.889 E.02399
G1 X126.402 Y155.543 E.02399
G1 X126.056 Y155.091 E.02399
G1 X125.838 Y154.566 E.02399
G1 X125.816 Y154.393 E.00734
G1 X126.694 Y154.956 F18000
G1 F2400
G1 X126.74 Y154.884 E.0036
G1 X126.824 Y154.858 E.00373
G1 X127.617 Y154.856 E.03343
G1 X128.198 Y154.771 E.02474
G1 X128.526 Y154.667 E.01451
G1 X128.873 Y154.507 E.01612
G1 X129.189 Y154.306 E.01577
G1 X129.319 Y154.196 E.0072
G1 X129.435 Y154.162 E.00509
G1 X129.54 Y154.222 E.00509
G1 X129.568 Y154.333 E.00481
G1 X129.558 Y154.413 E.00343
G1 X129.396 Y154.817 E.01833
G1 X129.136 Y155.165 E.01833
G1 X128.794 Y155.434 E.01833
G1 X128.394 Y155.605 E.01833
G1 X127.964 Y155.667 E.01833
G1 X127.493 Y155.605 E.01999
G1 X127.094 Y155.434 E.01833
G1 X126.78 Y155.193 E.01667
G1 X126.704 Y155.103 E.00498
G1 X126.676 Y154.99 E.0049
G1 E-.7 F2100
G1 X137.643 Y151.673 Z.4 F18000
G1 X145.312 Y149.354 Z.4
G1 Z.2 F720
G1 E.7 F1500
G1 F2400
G1 X146.5 Y149.354 E.05009
G1 X146.785 Y149.336 E.01205
G1 X147.261 Y149.226 E.02057
G1 X147.572 Y149.095 E.01423
G1 X147.829 Y148.942 E.01263
G1 X148.065 Y148.757 E.01263
G1 X148.276 Y148.544 E.01264
G1 X148.442 Y148.329 E.01145
G1 X148.595 Y148.072 E.01264
G1 X148.713 Y147.801 E.01244
G1 X148.796 Y147.514 E.01262
G1 X148.845 Y147.198 E.01349
G1 X148.964 Y147.289 E.00635
G1 X149.311 Y147.741 E.02399
G1 X149.528 Y148.266 E.02399
G1 X149.603 Y148.831 E.02399
G1 X149.528 Y149.395 E.02399
G1 X149.311 Y149.92 E.02399
G1 X148.964 Y150.372 E.02399
G1 X148.513 Y150.718 E.02399
G1 X147.987 Y150.936 E.02399
G1 X147.423 Y151.01 E.02399
G1 X146.859 Y150.936 E.02399
G1 X146.333 Y150.718 E.02399
G1 X145.882 Y150.372 E.02399
G1 X145.535 Y149.92 E.02399
G1 X145.327 Y149.391 E.024
G1 X146.382 Y149.913 F18000
G1 F2400
G1 X146.485 Y149.861 E.00485
G1 X146.91 Y149.827 E.018
G1 X147.363 Y149.723 E.01962
G1 X147.761 Y149.565 E.01804
G1 X148.082 Y149.381 E.01557
G1 X148.371 Y149.161 E.01533
G1 X148.631 Y148.905 E.01538
G1 X148.812 Y148.68 E.01217
G1 X148.918 Y148.623 E.00509
G1 X149.033 Y148.662 E.00509
G1 X149.081 Y148.755 E.00442
G1 X149.089 Y148.811 E.00237
G1 X149.037 Y149.242 E.01833
G1 X148.875 Y149.646 E.01833
G1 X148.615 Y149.994 E.01833
G1 X148.239 Y150.283 E.01999
G1 X147.835 Y150.444 E.01833
G1 X147.443 Y150.496 E.01667
G1 X147.011 Y150.444 E.01833
G1 X146.573 Y150.263 E.01999
G1 X146.404 Y150.133 E.00898
G1 X146.345 Y150.028 E.00509
G1 X146.37 Y149.951 E.00341
G1 E-.7 F2100
G1 X157.143 Y146.048 Z.4 F18000
G1 X164.58 Y143.354 Z.4
G1 Z.2 F720
G1 E.7 F1500
G1 F2400
G1 X165.502 Y143.354 E.03887
G1 X165.874 Y143.323 E.01575
G1 X166.35 Y143.193 E.02078
G1 X166.797 Y142.963 E.0212
G1 X167.072 Y142.75 E.01466
G1 X167.316 Y142.496 E.01484
G1 X167.516 Y142.213 E.01461
G1 X167.674 Y141.899 E.01484
G1 X167.782 Y141.575 E.0144
G1 X167.837 Y141.27 E.01307
G1 X167.845 Y140.893 E.0159
G1 X168.189 Y141.157 E.01831
G1 X168.536 Y141.609 E.02399
G1 X168.753 Y142.134 E.02399
G1 X168.828 Y142.698 E.02399
G1 X168.753 Y143.263 E.02399
G1 X168.536 Y143.788 E.02399
G1 X168.189 Y144.24 E.02399
G1 X167.738 Y144.586 E.02399
G1 X167.212 Y144.804 E.02399
G1 X166.648 Y144.878 E.02399
G1 X166.084 Y144.804 E.02399
G1 X165.558 Y144.586 E.02399
G1 X165.107 Y144.24 E.02399
G1 X164.76 Y143.788 E.02399
G1 X164.596 Y143.39 E.01816
G1 X165.723 Y143.915 F18000
G1 F2400
G1 X165.837 Y143.835 E.00588
G1 X166.017 Y143.81 E.00765
G1 X166.475 Y143.685 E.02004
G1 X167.115 Y143.357 E.03029
G1 X167.445 Y143.094 E.01782
G1 X167.675 Y142.854 E.01399
G1 X167.926 Y142.511 E.01792
G1 X167.998 Y142.383 E.00624
G1 X168.095 Y142.31 E.00509
G1 X168.214 Y142.33 E.00509
G1 X168.282 Y142.437 E.00537
G1 X168.314 Y142.679 E.01026
G1 X168.252 Y143.149 E.01999
G1 X168.08 Y143.548 E.01833
G1 X167.84 Y143.862 E.01667
G1 X167.498 Y144.131 E.01833
G1 X167.098 Y144.302 E.01833
G1 X166.628 Y144.364 E.01999
G1 X166.194 Y144.301 E.01848
G1 X165.797 Y144.125 E.01834
G1 X165.715 Y144.036 E.00509
G1 X165.72 Y143.955 E.00341
G1 E-.7 F2100
G1 X165.963 Y132.5 Z.4 F18000
G1 X167.768 Y47.393 Z.4
G1 Z.2 F720
G1 E.7 F1500
G1 F2400
G1 X167.668 Y47.086 E.01361
G1 X167.531 Y46.811 E.01298
G1 X167.358 Y46.556 E.01299
G1 X167.146 Y46.319 E.01339
G1 X166.869 Y46.087 E.01525
G1 X166.564 Y45.902 E.01505
G1 X166.138 Y45.736 E.01928
G1 X165.725 Y45.658 E.01772
G1 X163.813 Y45.648 E.0806
G1 X163.924 Y45.379 E.01226
G1 X164.271 Y44.928 E.02399
G1 X164.722 Y44.581 E.02399
G1 X165.248 Y44.364 E.02399
G1 X165.812 Y44.289 E.02399
G1 X166.376 Y44.364 E.02399
G1 X166.902 Y44.581 E.02399
G1 X167.353 Y44.928 E.02399
G1 X167.7 Y45.379 E.02399
G1 X167.918 Y45.905 E.02399
G1 X167.992 Y46.469 E.02399
G1 X167.918 Y47.033 E.02399
G1 X167.784 Y47.356 E.01476
G1 E-.7 F2100
G1 X166.789 Y45.338 Z.4 F18000
G1 Z.2 F720
G1 E.7 F1500
G1 F2400
G1 X166.623 Y45.381 E.00725
G1 X166.22 Y45.235 E.01807
G1 X165.83 Y45.162 E.01672
G1 X165.477 Y45.15 E.01488
G1 X165.368 Y45.098 E.00509
G1 X165.331 Y44.983 E.00509
G1 X165.39 Y44.877 E.00509
G1 X165.463 Y44.847 E.00334
G1 X165.832 Y44.803 E.01567
G1 X166.224 Y44.855 E.01667
G1 X166.628 Y45.017 E.01833
G1 X166.767 Y45.117 E.00724
G1 X166.826 Y45.223 E.00509
G1 X166.801 Y45.3 E.00341
G1 E-.7 F2100
G1 X155.346 Y45.537 Z.4 F18000
G1 X150.011 Y45.648 Z.4
G1 Z.2 F720
G1 E.7 F1500
G1 F2400
G1 X148.275 Y45.658 E.0732
G1 X147.859 Y45.737 E.01783
G1 X147.436 Y45.902 E.01916
G1 X147.135 Y46.083 E.01483
G1 X146.896 Y46.278 E.01298
G1 X146.685 Y46.502 E.01298
G1 X146.505 Y46.752 E.01298
G1 X146.373 Y46.993 E.01158
G1 X146.26 Y47.279 E.01298
G1 X146.221 Y47.429 E.00652
G1 X145.996 Y47.135 E.01562
G1 X145.778 Y46.609 E.02399
G1 X145.704 Y46.045 E.02399
G1 X145.778 Y45.481 E.02399
G1 X145.996 Y44.955 E.02399
G1 X146.342 Y44.504 E.02399
G1 X146.794 Y44.157 E.02399
G1 X147.319 Y43.939 E.02399
G1 X147.884 Y43.865 E.02399
G1 X148.448 Y43.939 E.02399
G1 X148.973 Y44.157 E.02399
G1 X149.425 Y44.504 E.02399
G1 X149.771 Y44.955 E.02399
G1 X149.989 Y45.481 E.02399
G1 X150.006 Y45.608 E.00541
G1 X149.084 Y45.096 F18000
G1 F2400
G1 X148.972 Y45.147 E.00518
G1 X148.286 Y45.151 E.02892
G1 X147.663 Y45.269 E.02673
G1 X147.166 Y45.473 E.02266
G1 X146.808 Y45.696 E.01776
G1 X146.493 Y45.965 E.01747
G1 X146.378 Y46.001 E.00509
G1 X146.273 Y45.941 E.00509
G1 X146.244 Y45.83 E.00486
G1 X146.27 Y45.633 E.00836
G1 X146.431 Y45.229 E.01833
G1 X146.692 Y44.881 E.01833
G1 X147.034 Y44.612 E.01833
G1 X147.472 Y44.431 E.01999
G1 X147.864 Y44.379 E.01667
G1 X148.295 Y44.431 E.01833
G1 X148.699 Y44.592 E.01833
G1 X149.065 Y44.876 E.01951
G1 X149.122 Y44.982 E.00509
G1 X149.097 Y45.059 E.00341
G1 E-.7 F2100
G1 X138.265 Y48.796 Z.4 F18000
G1 X130 Y51.647 Z.4
G1 Z.2 F720
G1 E.7 F1500
G1 F2400
G1 X129.367 Y51.652 E.02668
G1 X128.916 Y51.722 E.01928
G1 X128.613 Y51.821 E.01344
G1 X128.3 Y51.976 E.01472
G1 X128.006 Y52.182 E.01513
G1 X127.756 Y52.421 E.01459
G1 X127.564 Y52.662 E.01298
G1 X127.406 Y52.926 E.01299
G1 X127.294 Y53.182 E.01177
G1 X127.206 Y53.477 E.01299
G1 X127.148 Y53.907 E.01831
G1 X127.137 Y54.827 E.03878
G1 X126.785 Y54.557 E.01867
G1 X126.439 Y54.106 E.02399
